X: 1587
T: Jimbo's Fancy
C:Bob Rummery
B: australian traditional tunes wiki
M:6/8
L:1/8
R: Jig
Q: 3/8=100
K:G
V:1 
|:"G"GAGB2B|ded gfg|"C"efg "Am"age|"D7"ded cBA|
"G"GAGB2B|ded gfg|"Am"age "G"dBG|"D7"ABA "G"G3:|
|:"D"ABAA2F|ABA AFD|"G"BcBB2G|BcB GAB|
"A7"^c3c2B|^cdc ABc|"D"d2dd2B|1ded cBA:|2"Fin"ded "D7"cBA|"G"G6||
% abcbook-tune_id 6342d53aa5b4892fca075fd0


% abcbook-boost 0
% abcbook-tablature 
% abcbook-transpose 
% abcbook-lastupdated 1665324372617
% abcbook-soundfonts 
% abcbook-repeats 1
% NFF Book 2016

